X: 43425
T: Y Fasged O Wye
R: reel
M: 4/4
K: Gmajor
DGGF ~G2GD|GFGA BAGF|EDEG ~A2AG|AGAB AGFE|
D2GD ~G3G|GDGA BAGF|EAAG ABcB|1 AGFA G2FE:|2 AGFA GDEF||
GFGB d2dB|c2cd cBA2|~B2Bd BAG2|~A2AB AGFA|
~G2GB d2dB|cDcd cBAB|d2BA GDGA|1 ~B2AB AGFA:|2 B2AB AGFE||

